X:1
T:Springleik e. Melvin Tronsgaard (#3)     % name
C:e. Melvin Tronsgaard (1912 - 1972)     % composer
N:Springleik fr. Folldal     % info
Q:1/4=120     %Tempo
M:3/4     %Meter
L:1/8     %
K:G
uD |[G2G,2] "m"B2 {B}d2 |((3ec-c) (3ef-f {f}g2 |e>(d B)c A>(d |"*" B)G/B/ (3A(FA) {F}(3G-GD |
{D}G2 (GB) {B}d2 |((3ec-c) (3ef-f {f}g2 |e>d Bc A/(d/B) |[1{F}G2 uG3 :|[2{F}G2 uG4 :|
|:"m"vg>(b (3a-a)g/f/ {f}g2 | e>(a (3f-f) e/f/{f}g2 |{f}e>(d (3B)c-c A>(d|"*"B)G/B/ (3A(FA) {F}(3G-G D |
u{f}g>(b (3a-a)g/f/ {f}g2 | e>(a (3f-f) e/f/{f}g2 |{f}e>(d B)c A/(d/B) |[1{F}G2 uG4 :|[2 {F}G2 G3 |]
W:
W:All the uneven triplets in this tune were played somewhere between triplets (1/3 +2/3)
W:    & (1/16 + 1/8(dotted) ) in rhythm.
W: * The triplets in these measures were between a true triplet &( 1/16 + 1/16 + 1/8).
W: It was not as "angular" a rhythm as in the other tunes.
W:
W: m = inverted mordant - i.e. a one-finger-flick downward "drill".
W:Taught by Marit Larsen Westling, 2/20/05; transcr. by Sarah Kirton, 2/22/05
W:Scandia Festival, Petaluma CA
W:
W:Most of the 16ths & dotted 8ths on the second beats were more like triplets - i.e. 1/3 + 2/3.
W:So the rhythm was softer than what's written here by a little bit.
W:But most of the rhythms were very angular.
W:
W:She referred to all of the (1/8 + 1/16 + 1/16) beats as "triplets."  But her transcriptions
W:from Mendocino summer '04 show these	rhythms as above, which is close to how
W:she plays these.



